!!!COM:	Bach, Johann Sebastian
!!!CDT:	1685/02/21/-1750/07/28/
!!!OTL@@DE:	Straf mich nicht in deinem Zorn
!!!SCT:	BWV 115/6
!!!PC#:	38
!!!AGN:	chorale
**kern	**kern	**kern	**kern
*ICvox	*ICvox	*ICvox	*ICvox
*Ibass	*Itenor	*Ialto	*Isoprn
*I"Bass	*I"Tenor	*I"Alto	*I"Soprano
*>[A,A,B]	*>[A,A,B]	*>[A,A,B]	*>[A,A,B]
*>norep[A,B]	*>norep[A,B]	*>norep[A,B]	*>norep[A,B]
*>A	*>A	*>A	*>A
*clefF4	*clefGv2	*clefG2	*clefG2
*k[b-e-a-]	*k[b-e-a-]	*k[b-e-a-]	*k[b-e-a-]
*E-:	*E-:	*E-:	*E-:
*M4/4	*M4/4	*M4/4	*M4/4
*met(c)	*met(c)	*met(c)	*met(c)
*MM100	*MM100	*MM100	*MM100
=1-	=1-	=1-	=1-
8E-L	4B-	4e-	4g
8D	.	.	.
8C	4c	4e-	4a-
8E-J	.	.	.
8DL	4F	8fL	4b-
8C	.	8e-J	.
8BB-	4G	4d	4b-
8DJ	.	.	.
=2	=2	=2	=2
8CL	4G	4e-	4e-
8BB-	.	.	.
8AA-	8cL	8e-L	4f
8BB-J	8B-J	8dJ	.
2EE-;	2B-;	2e-;	2g;
=3	=3	=3	=3
8AA-L	4A-	4e-	4cc
8GG	.	.	.
8FF	4A-	4f	4dd
8AA-J	.	.	.
8GGL	4B-	8e-L	4ee-
8FF	.	8dJ	.
8EE-	4B-	4e-	4g
8GGJ	.	.	.
=4	=4	=4	=4
8AA-L	4c	4e-	2f
8FFJ	.	.	.
4BB-	8B-L	4d	.
.	8A-J	.	.
2EE-;	2G;	2B-;	2e-;
=5:|!	=5:|!	=5:|!	=5:|!
*>B	*>B	*>B	*>B
8DL	4B-	8fL	4b-
8C	.	8e-J	.
8BB-	4B-	8dL	4f
8DJ	.	8fJ	.
2E-;	2B-;	2e-;	2g;
=6	=6	=6	=6
8EL	8GL	4c	4.cc
8D	8F	.	.
8C	8E	4c	.
8EJ	8GJ	.	8b-
2F;	2F;	2c;	2a;
=7	=7	=7	=7
8DL	8B-L	4f	4b-
8C	8cJ	.	.
8BB-	4d	4f	4f
8DJ	.	.	.
8E-XL	8dL	8fL	8gL
8F	8cJ	8e-J	8aJ
8G	8B-L	4d	4b-
8FJ	8AJ	.	.
=8	=8	=8	=8
8E-L	4G	4c	4b-
8CJ	.	.	.
4F	4F	4c	4a
2BB-;	2F;	2d;	2b-;
=9	=9	=9	=9
8FFL	4A-X	4f	4cc
8GG	.	.	.
8AA-	4B-	4f	4dd
8FFJ	.	.	.
8GGL	4B-	4e-	4ee-
8AA-	.	.	.
8BB-	4B-	4e-	4g
8GGJ	.	.	.
=10	=10	=10	=10
8AA-L	8cL	4e-	2f
8FFJ	16B-L	.	.
.	16A-JJ	.	.
4BB-	8B-L	4d	.
.	8A-J	.	.
2EE-;	2G;	2B-;	2e-;
==	==	==	==
*-	*-	*-	*-
!!!hum2abc: -Q ''
!!!title: @{PC#}. @{OTL@@DE}
!!!YOR1: 371 vierstimmige Choralges&auml;nge von Johann Sebastian Bach, 
!!!YOR2: 4th ed. by Alfred D&ouml;rffel (Leipzig: Breitkopf und H&auml;rtel, 
!!!YOR2: c.1875). 178 pp. Plate "V.A.10".  reprint: J.S. Bach, 371 Four-Part 
!!!YOR4: Chorales (New York: Associated Music Publishers, Inc., c.1940).
!!!SMS: B&H, 4th ed, Alfred D&ouml;rffel, c.1875, plate V.A.10
!!!EED:  Craig Stuart Sapp
!!!EEV:  2009/05/22
